X:441
T:Sweet Forget Me Not
M:3/4
L:1/4
K:G
"G"D2 B, | D2 G | B2 B | B A G/2G/2 | "C"A G2 | E2 G | "G"(D3 | D3) |
 D "C"E2 | D E G | "G"D2 B, | D2 G | "A"A2 A | A2 B | "D"(A3 | A3) |
 D "G"D B, | D2 G | B2 B | B A G | "C"A G2 | E2 G | "G"(D3 | D3) |
 "C"E2 D | E G2 | "G"D2 B, | D2 G | "G"B2 c | "D"B2 A | "G"(G3 | G2) D|
 "G chorus"D2 B, | D2 G | B2 B | B A G | "C"A G2 | E2 G | "G"(D3 | D3) |
 "C"E2 D | E G2 | "G"D2 B, | D2 G | "A7"A2 A | A2 B| "D"(A3 | A2) D |
 "G"D2 B, | D2 G | B2 B | B A G | "C"A G2 | E2 G | "G"(D3 | D3) |
 "C"E2 D | E G2 | "G"D2 B, | D G2 | "G"B2 c | "D"B2 A|"G"(G3 |G) z2 ||

%%newpage
%%scale 0.8

